src/lib/packages/icons/src/assets/line/volume-slash.svg

<svg width="24" height="24" viewBox="0 0 24 24" fill="none" xmlns="http://www.w3.org/2000/svg">
<path d="M17.75 11V19.3301C17.75 20.2811 17.2151 21.121 16.3531 21.521C16.0221 21.675 15.673 21.75 15.3271 21.75C14.7681 21.75 14.219 21.5541 13.767 21.1731L10.122 18.082C9.92197 17.947 9.79006 17.7189 9.79006 17.4599C9.79006 17.0459 10.1261 16.7099 10.5401 16.7099C10.7451 16.7099 10.9611 16.8039 11.1021 16.9529L14.735 20.0281C15.017 20.2661 15.385 20.3149 15.72 20.1609C16.051 20.0069 16.249 19.6961 16.249 19.3301V11C16.249 10.586 16.585 10.25 16.999 10.25C17.413 10.25 17.75 10.586 17.75 11ZM21.5301 3.53002L3.53005 21.53C3.38405 21.676 3.19202 21.75 3.00002 21.75C2.80802 21.75 2.61599 21.677 2.46999 21.53C2.17699 21.237 2.17699 20.762 2.46999 20.469L5.88601 17.053C5.49201 16.644 5.251 16.092 5.251 15.499V8.49901C5.251 7.25801 6.261 6.24901 7.501 6.24901H9.27102C9.56502 6.24901 9.85208 6.14387 10.0811 5.95287L13.767 2.82689C14.498 2.20889 15.488 2.07504 16.355 2.47704C17.217 2.87704 17.752 3.71696 17.752 4.66796V5.18798L20.4721 2.46801C20.7651 2.17501 21.24 2.17501 21.533 2.46801C21.826 2.76101 21.8231 3.23702 21.5301 3.53002ZM16.25 4.66991C16.25 4.30391 16.052 3.9931 15.721 3.8391C15.384 3.6831 15.017 3.73389 14.734 3.97289L11.046 7.10106C10.544 7.52006 9.91502 7.74901 9.27102 7.74901H7.501C7.088 7.74901 6.751 8.08501 6.751 8.49901V15.499C6.751 15.69 6.82704 15.8599 6.94704 15.9929L16.251 6.68895V4.66991H16.25Z" fill="currentColor"/>
</svg>

<svg xmlns="http://www.w3.org/2000/svg" width="24" height="24" fill="none"><path fill="currentColor" d="M17.75 11v8.33c0 .951-.535 1.791-1.397 2.191a2.411 2.411 0 0 1-2.586-.348l-3.645-3.091a.75.75 0 0 1 .418-1.372c.205 0 .421.094.562.243l3.633 3.075c.282.238.65.287.985.133a.896.896 0 0 0 .529-.83V11a.75.75 0 0 1 1.501 0Zm3.78-7.47-18 18a.748.748 0 0 1-1.06 0 .75.75 0 0 1 0-1.061l3.416-3.416a2.244 2.244 0 0 1-.635-1.554v-7c0-1.241 1.01-2.25 2.25-2.25h1.77c.294 0 .581-.105.81-.296l3.686-3.126a2.402 2.402 0 0 1 2.588-.35c.862.4 1.397 1.24 1.397 2.191v.52l2.72-2.72A.75.75 0 1 1 21.53 3.53Zm-5.28 1.14a.896.896 0 0 0-.529-.83.904.904 0 0 0-.987.133L11.046 7.1a2.774 2.774 0 0 1-1.775.648h-1.77a.75.75 0 0 0-.75.75v7c0 .191.076.36.196.494l9.304-9.304v-2.02h-.001Z"/></svg>
